icons/modern/game-die.svg

<svg width="32" height="32" viewBox="0 0 32 32" fill="none" xmlns="http://www.w3.org/2000/svg">
	<g filter="url(#filter0_ii_18_3713)">
		<path d="M4.29319 6.35527C3.13425 6.80331 2.37015 7.91793 2.37015 9.16045V22.7919C2.37015 24.0258 3.12386 25.1346 4.27127 25.5885L14.7056 29.7166C15.4164 29.9978 16.2076 29.9978 16.9184 29.7166L27.3527 25.5885C28.5001 25.1346 29.2538 24.0258 29.2538 22.7919V9.16045C29.2538 7.91793 28.4897 6.80331 27.3308 6.35527L16.8965 2.32138C16.1987 2.0516 15.4253 2.05161 14.7275 2.32138L4.29319 6.35527Z" fill="#DEDDDE" />
		<path d="M4.29319 6.35527C3.13425 6.80331 2.37015 7.91793 2.37015 9.16045V22.7919C2.37015 24.0258 3.12386 25.1346 4.27127 25.5885L14.7056 29.7166C15.4164 29.9978 16.2076 29.9978 16.9184 29.7166L27.3527 25.5885C28.5001 25.1346 29.2538 24.0258 29.2538 22.7919V9.16045C29.2538 7.91793 28.4897 6.80331 27.3308 6.35527L16.8965 2.32138C16.1987 2.0516 15.4253 2.05161 14.7275 2.32138L4.29319 6.35527Z" fill="url(#paint0_linear_18_3713)" />
		<path d="M4.29319 6.35527C3.13425 6.80331 2.37015 7.91793 2.37015 9.16045V22.7919C2.37015 24.0258 3.12386 25.1346 4.27127 25.5885L14.7056 29.7166C15.4164 29.9978 16.2076 29.9978 16.9184 29.7166L27.3527 25.5885C28.5001 25.1346 29.2538 24.0258 29.2538 22.7919V9.16045C29.2538 7.91793 28.4897 6.80331 27.3308 6.35527L16.8965 2.32138C16.1987 2.0516 15.4253 2.05161 14.7275 2.32138L4.29319 6.35527Z" fill="url(#paint1_radial_18_3713)" />
	</g>
	<path d="M4.29319 6.35527C3.13425 6.80331 2.37015 7.91793 2.37015 9.16045V22.7919C2.37015 24.0258 3.12386 25.1346 4.27127 25.5885L14.7056 29.7166C15.4164 29.9978 16.2076 29.9978 16.9184 29.7166L27.3527 25.5885C28.5001 25.1346 29.2538 24.0258 29.2538 22.7919V9.16045C29.2538 7.91793 28.4897 6.80331 27.3308 6.35527L16.8965 2.32138C16.1987 2.0516 15.4253 2.05161 14.7275 2.32138L4.29319 6.35527Z" fill="url(#paint2_linear_18_3713)" />
	<path d="M4.29319 6.35527C3.13425 6.80331 2.37015 7.91793 2.37015 9.16045V22.7919C2.37015 24.0258 3.12386 25.1346 4.27127 25.5885L14.7056 29.7166C15.4164 29.9978 16.2076 29.9978 16.9184 29.7166L27.3527 25.5885C28.5001 25.1346 29.2538 24.0258 29.2538 22.7919V9.16045C29.2538 7.91793 28.4897 6.80331 27.3308 6.35527L16.8965 2.32138C16.1987 2.0516 15.4253 2.05161 14.7275 2.32138L4.29319 6.35527Z" fill="url(#paint3_linear_18_3713)" />
	<g filter="url(#filter1_f_18_3713)">
		<path d="M4.07619 24.2231L13.9581 28.2262C14.8442 28.5852 15.812 27.933 15.812 26.9769V14.2364C15.812 13.0693 15.1096 12.0169 14.0317 11.5691L4.78259 7.72684C3.89494 7.3581 2.91763 8.01038 2.91763 8.97158V21.9062C2.91763 22.8322 3.35854 23.685 4.07619 24.2231Z" fill="#C5C2C8" />
	</g>
	<g filter="url(#filter2_f_18_3713)">
		<path d="M27.4441 23.1915L17.5622 27.1035C16.6761 27.4543 15.7083 26.817 15.7083 25.8827V13.4322C15.7083 12.2917 16.4107 11.2632 17.4885 10.8257L26.7377 7.0709C27.6254 6.71055 28.6027 7.34798 28.6027 8.28729V20.9274C28.6027 21.8323 28.1618 22.6657 27.4441 23.1915Z" fill="#F6F4F8" />
	</g>
	<path d="M29.2503 9.01333C29.0562 8.20747 28.1728 7.71688 27.3586 8.05044L17.571 12.0601C16.4443 12.5217 15.7083 13.6186 15.7083 14.8362V28.0696C15.7083 29.0598 16.7082 29.737 17.6277 29.3697L28.0288 25.2145C28.787 24.6567 29.2538 23.7631 29.2538 22.7919V9.16048C29.2538 9.11122 29.2526 9.06215 29.2503 9.01333Z" fill="url(#paint4_linear_18_3713)" />
	<path d="M3.51862 25.2092L13.7827 29.3671C14.7031 29.74 15.7083 29.0626 15.7083 28.0696V14.8363C15.7083 13.624 14.9787 12.5309 13.8592 12.0658L4.25233 8.07494C3.33035 7.69193 2.31525 8.36945 2.31525 9.36782V22.8027C2.31525 23.7645 2.77321 24.6503 3.51862 25.2092Z" fill="url(#paint5_linear_18_3713)" />
	<path fill="url(#paint6_radial_18_3713)" d="M13.0245 6.4647a2.7387 1.1577 0 1 0 5.4773 0a2.7387 1.1577 0 1 0 -5.4773 0" />
	<path transform="rotate(23.4058 19.5158 24.1707)" fill="url(#paint7_radial_18_3713)" d="M18.0044 24.1707a1.5114 2.3736 0 1 0 3.0229 0a1.5114 2.3736 0 1 0 -3.0229 0" />
	<path transform="rotate(23.4058 19.5158 24.1707)" fill="url(#paint8_radial_18_3713)" d="M18.0044 24.1707a1.5114 2.3736 0 1 0 3.0229 0a1.5114 2.3736 0 1 0 -3.0229 0" />
	<path transform="rotate(23.4058 22.6432 18.9698)" fill="url(#paint9_radial_18_3713)" d="M21.1318 18.9698a1.5114 2.3736 0 1 0 3.0229 0a1.5114 2.3736 0 1 0 -3.0229 0" />
	<path transform="rotate(23.4058 22.6432 18.9698)" fill="url(#paint10_radial_18_3713)" d="M21.1318 18.9698a1.5114 2.3736 0 1 0 3.0229 0a1.5114 2.3736 0 1 0 -3.0229 0" />
	<path transform="rotate(23.4058 25.788 13.6653)" fill="url(#paint11_radial_18_3713)" d="M24.2766 13.6653a1.5114 2.3736 0 1 0 3.0229 0a1.5114 2.3736 0 1 0 -3.0229 0" />
	<path transform="rotate(23.4058 25.788 13.6653)" fill="url(#paint12_radial_18_3713)" d="M24.2766 13.6653a1.5114 2.3736 0 1 0 3.0229 0a1.5114 2.3736 0 1 0 -3.0229 0" />
	<path transform="matrix(-0.959262 0.282519 0.282519 0.959262 5.72121 13.8997)" fill="url(#paint13_radial_18_3713)" d="M-1.5227 0a1.5227 2.5617 0 1 0 3.0454 0a1.5227 2.5617 0 1 0 -3.0454 0" />
	<path transform="matrix(-0.959262 0.282519 0.282519 0.959262 12.2871 23.9103)" fill="#5A867B" fill-opacity="0.5" d="M-1.5227 0a1.5227 2.5617 0 1 0 3.0454 0a1.5227 2.5617 0 1 0 -3.0454 0" />
	<path transform="matrix(-0.959262 0.282519 0.282519 0.959262 12.2871 23.9103)" fill="url(#paint14_radial_18_3713)" d="M-1.5227 0a1.5227 2.5617 0 1 0 3.0454 0a1.5227 2.5617 0 1 0 -3.0454 0" />
	<defs>
		<filter id="filter0_ii_18_3713" x="2.07015" y="2.11905" width="27.3337" height="27.9584" filterUnits="userSpaceOnUse" color-interpolation-filters="sRGB">
			<feFlood flood-opacity="0" result="BackgroundImageFix">
			</feFlood>
			<feBlend mode="normal" in="SourceGraphic" in2="BackgroundImageFix" result="shape">
			</feBlend>
			<feColorMatrix in="SourceAlpha" type="matrix" values="0 0 0 0 0 0 0 0 0 0 0 0 0 0 0 0 0 0 127 0" result="hardAlpha">
			</feColorMatrix>
			<feOffset dx="0.15" dy="0.15">
			</feOffset>
			<feGaussianBlur stdDeviation="0.25">
			</feGaussianBlur>
			<feComposite in2="hardAlpha" operator="arithmetic" k2="-1" k3="1">
			</feComposite>
			<feColorMatrix type="matrix" values="0 0 0 0 0.807843 0 0 0 0 0.807843 0 0 0 0 0.807843 0 0 0 1 0">
			</feColorMatrix>
			<feBlend mode="normal" in2="shape" result="effect1_innerShadow_18_3713">
			</feBlend>
			<feColorMatrix in="SourceAlpha" type="matrix" values="0 0 0 0 0 0 0 0 0 0 0 0 0 0 0 0 0 0 127 0" result="hardAlpha">
			</feColorMatrix>
			<feOffset dx="-0.3" dy="0.1">
			</feOffset>
			<feGaussianBlur stdDeviation="0.25">
			</feGaussianBlur>
			<feComposite in2="hardAlpha" operator="arithmetic" k2="-1" k3="1">
			</feComposite>
			<feColorMatrix type="matrix" values="0 0 0 0 0.964706 0 0 0 0 0.964706 0 0 0 0 0.964706 0 0 0 1 0">
			</feColorMatrix>
			<feBlend mode="normal" in2="effect1_innerShadow_18_3713" result="effect2_innerShadow_18_3713">
			</feBlend>
		</filter>
		<filter id="filter1_f_18_3713" x="1.66763" y="6.37231" width="15.3943" height="23.2039" filterUnits="userSpaceOnUse" color-interpolation-filters="sRGB">
			<feFlood flood-opacity="0" result="BackgroundImageFix">
			</feFlood>
			<feBlend mode="normal" in="SourceGraphic" in2="BackgroundImageFix" result="shape">
			</feBlend>
			<feGaussianBlur stdDeviation="0.625" result="effect1_foregroundBlur_18_3713">
			</feGaussianBlur>
		</filter>
		<filter id="filter2_f_18_3713" x="14.4583" y="5.71875" width="15.3943" height="22.7324" filterUnits="userSpaceOnUse" color-interpolation-filters="sRGB">
			<feFlood flood-opacity="0" result="BackgroundImageFix">
			</feFlood>
			<feBlend mode="normal" in="SourceGraphic" in2="BackgroundImageFix" result="shape">
			</feBlend>
			<feGaussianBlur stdDeviation="0.625" result="effect1_foregroundBlur_18_3713">
			</feGaussianBlur>
		</filter>
		<linearGradient id="paint0_linear_18_3713" x1="17.0215" y1="29.9275" x2="17.0215" y2="25.5057" gradientUnits="userSpaceOnUse">
			<stop stop-color="#BEA5D6">
			</stop>
			<stop offset="1" stop-color="#BEA5D6" stop-opacity="0">
			</stop>
		</linearGradient>
		<radialGradient id="paint1_radial_18_3713" cx="0" cy="0" r="1" gradientUnits="userSpaceOnUse" gradientTransform="translate(14.6025 30.1364) rotate(-65.6375) scale(2.01057 1.94372)">
			<stop offset="0.415529" stop-color="#AB8CC8">
			</stop>
			<stop offset="1" stop-color="#AB8CC8" stop-opacity="0">
			</stop>
		</radialGradient>
		<linearGradient id="paint2_linear_18_3713" x1="28.4942" y1="6.43749" x2="25.0567" y2="11.375" gradientUnits="userSpaceOnUse">
			<stop stop-color="#FAF9FA">
			</stop>
			<stop offset="1" stop-color="#FAF9FA" stop-opacity="0">
			</stop>
		</linearGradient>
		<linearGradient id="paint3_linear_18_3713" x1="8.88387" y1="4.20055" x2="9.17117" y2="4.93476" gradientUnits="userSpaceOnUse">
			<stop stop-color="#C9C9C9">
			</stop>
			<stop offset="1" stop-color="#C9C9C9" stop-opacity="0">
			</stop>
		</linearGradient>
		<linearGradient id="paint4_linear_18_3713" x1="17.7126" y1="14.7239" x2="30.2915" y2="24.8837" gradientUnits="userSpaceOnUse">
			<stop stop-color="#E7E1ED">
			</stop>
			<stop offset="1" stop-color="#E4DDEC">
			</stop>
		</linearGradient>
		<linearGradient id="paint5_linear_18_3713" x1="2.31525" y1="8.79024" x2="14.4517" y2="29.471" gradientUnits="userSpaceOnUse">
			<stop stop-color="#B7B1BE">
			</stop>
			<stop offset="1" stop-color="#AB9EBA">
			</stop>
		</linearGradient>
		<radialGradient id="paint6_radial_18_3713" cx="0" cy="0" r="1" gradientUnits="userSpaceOnUse" gradientTransform="translate(13.4967 6.46465) scale(4.66524 1.15767)">
			<stop stop-color="#FF647D">
			</stop>
			<stop offset="1" stop-color="#E14065">
			</stop>
		</radialGradient>
		<radialGradient id="paint7_radial_18_3713" cx="0" cy="0" r="1" gradientUnits="userSpaceOnUse" gradientTransform="translate(19.1763 22.6276) rotate(77.2138) scale(3.6376 3.41209)">
			<stop offset="0.28841" stop-color="#46377C">
			</stop>
			<stop offset="1" stop-color="#4E306A">
			</stop>
		</radialGradient>
		<radialGradient id="paint8_radial_18_3713" cx="0" cy="0" r="1" gradientUnits="userSpaceOnUse" gradientTransform="translate(19.1549 24.8283) rotate(78.8589) scale(1.50272 1.2658)">
			<stop stop-color="#65568A">
			</stop>
			<stop offset="1" stop-color="#65568A" stop-opacity="0">
			</stop>
		</radialGradient>
		<radialGradient id="paint9_radial_18_3713" cx="0" cy="0" r="1" gradientUnits="userSpaceOnUse" gradientTransform="translate(22.3038 17.4267) rotate(77.2138) scale(3.6376 3.41209)">
			<stop offset="0.28841" stop-color="#46377C">
			</stop>
			<stop offset="1" stop-color="#4E306A">
			</stop>
		</radialGradient>
		<radialGradient id="paint10_radial_18_3713" cx="0" cy="0" r="1" gradientUnits="userSpaceOnUse" gradientTransform="translate(22.2824 19.6274) rotate(78.8589) scale(1.50272 1.2658)">
			<stop stop-color="#65568A">
			</stop>
			<stop offset="1" stop-color="#65568A" stop-opacity="0">
			</stop>
		</radialGradient>
		<radialGradient id="paint11_radial_18_3713" cx="0" cy="0" r="1" gradientUnits="userSpaceOnUse" gradientTransform="translate(25.4485 12.1221) rotate(77.2138) scale(3.6376 3.41209)">
			<stop offset="0.28841" stop-color="#46377C">
			</stop>
			<stop offset="1" stop-color="#4E306A">
			</stop>
		</radialGradient>
		<radialGradient id="paint12_radial_18_3713" cx="0" cy="0" r="1" gradientUnits="userSpaceOnUse" gradientTransform="translate(25.4271 14.3228) rotate(78.8589) scale(1.50272 1.2658)">
			<stop stop-color="#65568A">
			</stop>
			<stop offset="1" stop-color="#65568A" stop-opacity="0">
			</stop>
		</radialGradient>
		<radialGradient id="paint13_radial_18_3713" cx="0" cy="0" r="1" gradientUnits="userSpaceOnUse" gradientTransform="translate(1.2912 4.66526) rotate(-76.6657) scale(4.11785 2.44773)">
			<stop stop-color="#3E284E">
			</stop>
			<stop offset="1" stop-color="#40306F">
			</stop>
		</radialGradient>
		<radialGradient id="paint14_radial_18_3713" cx="0" cy="0" r="1" gradientUnits="userSpaceOnUse" gradientTransform="translate(1.2912 4.66526) rotate(-95.2473) scale(4.21668 3.05862)">
			<stop stop-color="#3E284E">
			</stop>
			<stop offset="1" stop-color="#40306F">
			</stop>
		</radialGradient>
	</defs>
</svg>

<svg width="32" height="32" fill="none" xmlns="http://www.w3.org/2000/svg"><g filter="url(#a)"><path d="M4.293 6.355A3.008 3.008 0 0 0 2.37 9.16v13.632c0 1.234.754 2.343 1.901 2.796l10.435 4.129c.71.28 1.502.28 2.212 0l10.435-4.128a3.007 3.007 0 0 0 1.9-2.797V9.16a3.008 3.008 0 0 0-1.922-2.805L16.897 2.321a3.008 3.008 0 0 0-2.17 0L4.293 6.355Z" fill="#DEDDDE"/><path d="M4.293 6.355A3.008 3.008 0 0 0 2.37 9.16v13.632c0 1.234.754 2.343 1.901 2.796l10.435 4.129c.71.28 1.502.28 2.212 0l10.435-4.128a3.007 3.007 0 0 0 1.9-2.797V9.16a3.008 3.008 0 0 0-1.922-2.805L16.897 2.321a3.008 3.008 0 0 0-2.17 0L4.293 6.355Z" fill="url(#b)"/><path d="M4.293 6.355A3.008 3.008 0 0 0 2.37 9.16v13.632c0 1.234.754 2.343 1.901 2.796l10.435 4.129c.71.28 1.502.28 2.212 0l10.435-4.128a3.007 3.007 0 0 0 1.9-2.797V9.16a3.008 3.008 0 0 0-1.922-2.805L16.897 2.321a3.008 3.008 0 0 0-2.17 0L4.293 6.355Z" fill="url(#c)"/></g><path d="M4.293 6.355A3.008 3.008 0 0 0 2.37 9.16v13.632c0 1.234.754 2.343 1.901 2.796l10.435 4.129c.71.28 1.502.28 2.212 0l10.435-4.128a3.007 3.007 0 0 0 1.9-2.797V9.16a3.008 3.008 0 0 0-1.922-2.805L16.897 2.321a3.008 3.008 0 0 0-2.17 0L4.293 6.355Z" fill="url(#d)"/><path d="M4.293 6.355A3.008 3.008 0 0 0 2.37 9.16v13.632c0 1.234.754 2.343 1.901 2.796l10.435 4.129c.71.28 1.502.28 2.212 0l10.435-4.128a3.007 3.007 0 0 0 1.9-2.797V9.16a3.008 3.008 0 0 0-1.922-2.805L16.897 2.321a3.008 3.008 0 0 0-2.17 0L4.293 6.355Z" fill="url(#e)"/><g filter="url(#f)"><path d="m4.076 24.223 9.882 4.003a1.348 1.348 0 0 0 1.854-1.25v-12.74c0-1.167-.702-2.22-1.78-2.667l-9.25-3.842a1.348 1.348 0 0 0-1.864 1.245v12.934c0 .926.44 1.779 1.158 2.317Z" fill="#C5C2C8"/></g><g filter="url(#g)"><path d="m27.444 23.192-9.882 3.912c-.886.35-1.854-.287-1.854-1.221v-12.45c0-1.141.703-2.17 1.78-2.607l9.25-3.755c.887-.36 1.865.277 1.865 1.216v12.64c0 .905-.441 1.739-1.159 2.265Z" fill="#F6F4F8"/></g><path d="M29.25 9.013a1.401 1.401 0 0 0-1.891-.963l-9.788 4.01a3 3 0 0 0-1.863 2.776V28.07c0 .99 1 1.667 1.92 1.3l10.4-4.155a3.008 3.008 0 0 0 1.226-2.423V9.16c0-.049-.001-.098-.004-.147Z" fill="url(#h)"/><path d="m3.519 25.21 10.264 4.157a1.4 1.4 0 0 0 1.925-1.297V14.836a3 3 0 0 0-1.849-2.77L4.252 8.075a1.4 1.4 0 0 0-1.937 1.293v13.435c0 .962.458 1.847 1.204 2.406Z" fill="url(#i)"/><path fill="url(#j)" d="M13.024 6.465a2.739 1.158 0 1 0 5.478 0 2.739 1.158 0 1 0-5.477 0"/><path transform="rotate(23.406 19.516 24.17)" fill="url(#k)" d="M18.004 24.17a1.511 2.374 0 1 0 3.023 0 1.511 2.374 0 1 0-3.023 0"/><path transform="rotate(23.406 19.516 24.17)" fill="url(#l)" d="M18.004 24.17a1.511 2.374 0 1 0 3.023 0 1.511 2.374 0 1 0-3.023 0"/><path transform="rotate(23.406 22.643 18.97)" fill="url(#m)" d="M21.132 18.97a1.511 2.374 0 1 0 3.023 0 1.511 2.374 0 1 0-3.023 0"/><path transform="rotate(23.406 22.643 18.97)" fill="url(#n)" d="M21.132 18.97a1.511 2.374 0 1 0 3.023 0 1.511 2.374 0 1 0-3.023 0"/><path transform="rotate(23.406 25.788 13.665)" fill="url(#o)" d="M24.277 13.665a1.511 2.374 0 1 0 3.022 0 1.511 2.374 0 1 0-3.022 0"/><path transform="rotate(23.406 25.788 13.665)" fill="url(#p)" d="M24.277 13.665a1.511 2.374 0 1 0 3.022 0 1.511 2.374 0 1 0-3.022 0"/><path transform="scale(-1 1) rotate(16.411 -51.058 -12.888)" fill="url(#q)" d="M-1.523 0a1.523 2.562 0 1 0 3.046 0 1.523 2.562 0 1 0-3.046 0"/><path fill="#5A867B" fill-opacity=".5" d="M13.748 23.48a1.523 2.562-16.41 1 1-2.922.86 1.523 2.562-16.41 1 1 2.922-.86"/><path transform="scale(-1 1) rotate(16.411 -89.052 -30.65)" fill="url(#r)" d="M-1.523 0a1.523 2.562 0 1 0 3.046 0 1.523 2.562 0 1 0-3.046 0"/><defs><radialGradient id="c" cx="0" cy="0" r="1" gradientUnits="userSpaceOnUse" gradientTransform="rotate(-65.638 30.666 3.747) scale(2.01057 1.94372)"><stop offset=".416" stop-color="#AB8CC8"/><stop offset="1" stop-color="#AB8CC8" stop-opacity="0"/></radialGradient><radialGradient id="j" cx="0" cy="0" r="1" gradientUnits="userSpaceOnUse" gradientTransform="matrix(4.66524 0 0 1.15767 13.497 6.465)"><stop stop-color="#FF647D"/><stop offset="1" stop-color="#E14065"/></radialGradient><radialGradient id="k" cx="0" cy="0" r="1" gradientUnits="userSpaceOnUse" gradientTransform="rotate(77.214 -4.58 23.322) scale(3.6376 3.41209)"><stop offset=".288" stop-color="#46377C"/><stop offset="1" stop-color="#4E306A"/></radialGradient><radialGradient id="l" cx="0" cy="0" r="1" gradientUnits="userSpaceOnUse" gradientTransform="matrix(.29036 1.4744 -1.24195 .24459 19.155 24.828)"><stop stop-color="#65568A"/><stop offset="1" stop-color="#65568A" stop-opacity="0"/></radialGradient><radialGradient id="m" cx="0" cy="0" r="1" gradientUnits="userSpaceOnUse" gradientTransform="rotate(77.214 .24 22.68) scale(3.6376 3.41209)"><stop offset=".288" stop-color="#46377C"/><stop offset="1" stop-color="#4E306A"/></radialGradient><radialGradient id="n" cx="0" cy="0" r="1" gradientUnits="userSpaceOnUse" gradientTransform="matrix(.29036 1.4744 -1.24195 .24459 22.282 19.627)"><stop stop-color="#65568A"/><stop offset="1" stop-color="#65568A" stop-opacity="0"/></radialGradient><radialGradient id="o" cx="0" cy="0" r="1" gradientUnits="userSpaceOnUse" gradientTransform="rotate(77.214 5.134 21.997) scale(3.6376 3.41209)"><stop offset=".288" stop-color="#46377C"/><stop offset="1" stop-color="#4E306A"/></radialGradient><radialGradient id="p" cx="0" cy="0" r="1" gradientUnits="userSpaceOnUse" gradientTransform="matrix(.29036 1.4744 -1.24195 .24459 25.427 14.323)"><stop stop-color="#65568A"/><stop offset="1" stop-color="#65568A" stop-opacity="0"/></radialGradient><radialGradient id="q" cx="0" cy="0" r="1" gradientUnits="userSpaceOnUse" gradientTransform="matrix(.9497 -4.00684 2.38174 .56453 1.291 4.665)"><stop stop-color="#3E284E"/><stop offset="1" stop-color="#40306F"/></radialGradient><radialGradient id="r" cx="0" cy="0" r="1" gradientUnits="userSpaceOnUse" gradientTransform="matrix(-.38564 -4.199 3.0458 -.27973 1.291 4.665)"><stop stop-color="#3E284E"/><stop offset="1" stop-color="#40306F"/></radialGradient><linearGradient id="b" x1="17.021" y1="29.927" x2="17.021" y2="25.506" gradientUnits="userSpaceOnUse"><stop stop-color="#BEA5D6"/><stop offset="1" stop-color="#BEA5D6" stop-opacity="0"/></linearGradient><linearGradient id="d" x1="28.494" y1="6.437" x2="25.057" y2="11.375" gradientUnits="userSpaceOnUse"><stop stop-color="#FAF9FA"/><stop offset="1" stop-color="#FAF9FA" stop-opacity="0"/></linearGradient><linearGradient id="e" x1="8.884" y1="4.201" x2="9.171" y2="4.935" gradientUnits="userSpaceOnUse"><stop stop-color="#C9C9C9"/><stop offset="1" stop-color="#C9C9C9" stop-opacity="0"/></linearGradient><linearGradient id="h" x1="17.713" y1="14.724" x2="30.291" y2="24.884" gradientUnits="userSpaceOnUse"><stop stop-color="#E7E1ED"/><stop offset="1" stop-color="#E4DDEC"/></linearGradient><linearGradient id="i" x1="2.315" y1="8.79" x2="14.452" y2="29.471" gradientUnits="userSpaceOnUse"><stop stop-color="#B7B1BE"/><stop offset="1" stop-color="#AB9EBA"/></linearGradient><filter id="a" x="2.07" y="2.119" width="27.334" height="27.958" filterUnits="userSpaceOnUse" color-interpolation-filters="sRGB"><feFlood flood-opacity="0" result="BackgroundImageFix"/><feBlend in="SourceGraphic" in2="BackgroundImageFix" result="shape"/><feColorMatrix in="SourceAlpha" values="0 0 0 0 0 0 0 0 0 0 0 0 0 0 0 0 0 0 127 0" result="hardAlpha"/><feOffset dx=".15" dy=".15"/><feGaussianBlur stdDeviation=".25"/><feComposite in2="hardAlpha" operator="arithmetic" k2="-1" k3="1"/><feColorMatrix values="0 0 0 0 0.807843 0 0 0 0 0.807843 0 0 0 0 0.807843 0 0 0 1 0"/><feBlend in2="shape" result="effect1_innerShadow_18_3713"/><feColorMatrix in="SourceAlpha" values="0 0 0 0 0 0 0 0 0 0 0 0 0 0 0 0 0 0 127 0" result="hardAlpha"/><feOffset dx="-.3" dy=".1"/><feGaussianBlur stdDeviation=".25"/><feComposite in2="hardAlpha" operator="arithmetic" k2="-1" k3="1"/><feColorMatrix values="0 0 0 0 0.964706 0 0 0 0 0.964706 0 0 0 0 0.964706 0 0 0 1 0"/><feBlend in2="effect1_innerShadow_18_3713" result="effect2_innerShadow_18_3713"/></filter><filter id="f" x="1.668" y="6.372" width="15.394" height="23.204" filterUnits="userSpaceOnUse" color-interpolation-filters="sRGB"><feFlood flood-opacity="0" result="BackgroundImageFix"/><feBlend in="SourceGraphic" in2="BackgroundImageFix" result="shape"/><feGaussianBlur stdDeviation=".625" result="effect1_foregroundBlur_18_3713"/></filter><filter id="g" x="14.458" y="5.719" width="15.394" height="22.732" filterUnits="userSpaceOnUse" color-interpolation-filters="sRGB"><feFlood flood-opacity="0" result="BackgroundImageFix"/><feBlend in="SourceGraphic" in2="BackgroundImageFix" result="shape"/><feGaussianBlur stdDeviation=".625" result="effect1_foregroundBlur_18_3713"/></filter></defs></svg>
